X:1
T:Title
%%score 1 { ( 2 4 ) | ( 3 5 ) }
L:1/8
Q:1/4=100
M:4/4
K:D
V:1 treble nm="Akkordion"
V:2 treble nm="Grand Piano"
V:4 treble 
V:3 bass 
V:5 bass 
V:1
 A2 FG A2 AA | BdcB A2 BA | G2 AG F2 A2 | E6 EF | G2 G2 G2 FE | FEFG A2 AA | B2 B2 B2 cd | c6 AA | %8
w: Thomas~P.~Westendorf * * * * *||||||||
 d2 d2 d2 cB | A2 F2 A2 AA | A2 EF G2 B2 | A6 AA | B2 B2 B2 cB |[M:9/8] A2 F- F .d2 z .A.A | %14
w: ||||||
[M:4/4] .A<.A .A2 .A<.A .A2 | A2 z2 z4 | z8 | z8 | z8 |[M:3/4] z6 |[M:1/4] z2 |[M:4/4] z8 | z8 | %23
w: |||||||||
 z8 | z8 |] %25
w: ||
V:2
 A,DFD A,DFD | B,DGD A,DFD | A,CEC A,DFD | A,CEC AGEF | z GGG[K:bass] z[K:treble] GGG | %5
 z FFF z FFF | z[K:treble] GGG G,GE,^G | z AAA z AAA | z FFF z BAG | z FFF z FFF | %10
 z[K:treble] GGG[K:bass] z[K:treble] GGG | z FFF z FFF | z[K:treble] GGG[K:bass] z[K:treble] GAG | %13
[M:9/8] z FF F [A,DF]2- [A,DF] z z |[M:4/4] [=C=FA]2 [CFA]2 [DFA]2 [DF]2 | [CEA]6 z2 | %16
 [Fd]<[Fd] [Gd]2 [Fd]2 z2 | [Fd]<[Fd] [FB]2 [Fd]2 z2 | [^Gd][Gd][Gd][Gd] [Ge]2 [Gd]2 |[M:3/4] c6 | %20
[M:1/4] BA |[M:4/4] [Fd]2 [Fd]2 [Gd]2 [Ac][GB] | [FA]2 [DF]2 [FA]2 [FA][FA] | %23
 .[EA]2 .[FA]2 .[GA]2 .[EA]2 | [FA]2 z2 z4 |] %25
V:3
 [D,,D,]2 z2 [D,,D,]2 z2 | [G,,G,]2 z2 [F,,F,]2 z2 | [E,,E,]2 z2 [D,,D,]2 z2 | A,,2 z2 A,,2 z2 | %4
 z [A,C][A,C][A,C] z [A,C][A,C][A,C] | z [A,D][A,D][A,D] z [A,D][A,D][A,D] | %6
 z [B,D][B,D][B,D] G,,[B,D]E,,[B,D] | z [CE][CE][CE] z [CE][CE][CE] | %8
 z [A,D][A,D][A,D] z [B,D][B,D][B,D] | z [A,D][A,D][A,D] z [A,D][A,D][A,D] | %10
 z [A,C][A,C][A,C] z [A,C][A,C][A,C] | z [A,D][A,D][A,D] z [A,D][A,D][A,D] | %12
 z [B,D][B,D][B,D] z [B,D][B,D]B, |[M:9/8] z [A,D][A,D] [A,D] [D,,D,]2- [D,,D,] z z | %14
[M:4/4] [=F,,=F,]2 [F,,F,]2 [D,,D,]2 [F,,F,]2 | [A,,A,]6 z2 | [D,A,]<[D,A,] [D,B,]2 [D,A,]2 z2 | %17
 [B,,B,]<[B,,B,] [B,D]2 [B,,B,]2 z2 | [E,B,][E,B,][E,B,][E,B,] [E,B,]2 [E,E]2 | %19
[M:3/4][K:treble] [A,EG]6 |[M:1/4] [A,CG][A,CG] | %21
[M:4/4][K:bass] [D,A,]2 [D,A,]2 [G,B,]2 [G,D][G,D] | [D,D]2 [D,A,]2 [D,D]2 [D,D][D,D] | %23
 [A,C]2 [A,D]2 [A,E]2 [A,C]2 | [D,D]6 z2 |] %25
V:4
 x8 | x8 | x8 | x8 | E,2 z2[K:bass] C,2[K:treble] z2 | D,2 z2 F,2 z2 | G,,2[K:treble] z2 z4 | %7
 A,2 z2 A,2 z2 | D,2 z2 A,2 z2 | D,2 z2 D,2 z2 | A,,2[K:treble] z2[K:bass] C,2[K:treble] z2 | %11
 D,2 z2 F,2 z2 | G,,2[K:treble] z2[K:bass] G,,2[K:treble] z2 |[M:9/8] .D,3 z3 z3 |[M:4/4] x8 | x8 | %16
 x8 | x8 | x8 |[M:3/4] x6 |[M:1/4] x2 |[M:4/4] x8 | x8 | x8 | x8 |] %25
V:5
 x8 | x8 | x8 | x8 | E,,2 z2 C,,2 z2 | D,,2 z2 F,,2 z2 | x8 | A,,2 z2 A,,2 z2 | D,,2 z2 G,,2 z2 | %9
 D,,2 z2 D,,2 z2 | x8 | D,,2 z2 F,,2 z2 | x8 |[M:9/8] .D,,3 z3 z3 |[M:4/4] x8 | x8 | x8 | x8 | x8 | %19
[M:3/4][K:treble] x6 |[M:1/4] x2 |[M:4/4][K:bass] x8 | x8 | x8 | x8 |] %25

